icons/evolvere-blue-folders-flat-vivid-dark-fallback/apps/64/preferences-desktop-wallpaper.svg

<?xml version="1.0" encoding="UTF-8" standalone="no"?>
<!-- Created with Inkscape (http://www.inkscape.org/) -->

<svg
   xmlns:dc="http://purl.org/dc/elements/1.1/"
   xmlns:cc="http://creativecommons.org/ns#"
   xmlns:rdf="http://www.w3.org/1999/02/22-rdf-syntax-ns#"
   xmlns:svg="http://www.w3.org/2000/svg"
   xmlns="http://www.w3.org/2000/svg"
   xmlns:sodipodi="http://sodipodi.sourceforge.net/DTD/sodipodi-0.dtd"
   xmlns:inkscape="http://www.inkscape.org/namespaces/inkscape"
   id="svg13094"
   height="64"
   width="64"
   version="1.1"
   inkscape:version="0.48.4 r9939"
   sodipodi:docname="preferences-desktop-wallpaper.svg"
   inkscape:export-filename="folder.png"
   inkscape:export-xdpi="90"
   inkscape:export-ydpi="90">
  <sodipodi:namedview
     pagecolor="#ffffff"
     bordercolor="#666666"
     borderopacity="1"
     objecttolerance="10"
     gridtolerance="10"
     guidetolerance="10"
     inkscape:pageopacity="0"
     inkscape:pageshadow="2"
     inkscape:window-width="1920"
     inkscape:window-height="1025"
     id="namedview46"
     showgrid="true"
     inkscape:snap-bbox="true"
     inkscape:bbox-paths="true"
     inkscape:bbox-nodes="true"
     inkscape:snap-bbox-edge-midpoints="true"
     inkscape:snap-bbox-midpoints="true"
     inkscape:snap-nodes="true"
     inkscape:object-paths="true"
     inkscape:snap-intersection-paths="true"
     inkscape:object-nodes="true"
     inkscape:snap-smooth-nodes="true"
     inkscape:snap-midpoints="true"
     inkscape:snap-object-midpoints="true"
     inkscape:snap-center="true"
     fit-margin-top="0"
     fit-margin-left="0"
     fit-margin-right="0"
     fit-margin-bottom="0"
     inkscape:zoom="10.429825"
     inkscape:cx="47.319079"
     inkscape:cy="32.888851"
     inkscape:window-x="-2"
     inkscape:window-y="32"
     inkscape:window-maximized="1"
     inkscape:current-layer="g3022"
     showguides="true"
     inkscape:guide-bbox="true"
     inkscape:snap-page="true"
     inkscape:snap-global="false">
    <inkscape:grid
       type="xygrid"
       id="grid3023"
       empspacing="5"
       visible="true"
       enabled="true"
       snapvisiblegridlinesonly="true"
       originx="-80px"
       originy="-75px" />
  </sodipodi:namedview>
  <defs
     id="defs11" />
  <metadata
     id="metadata13099">
    <rdf:RDF>
      <cc:Work
         rdf:about="">
        <dc:format>image/svg+xml</dc:format>
        <dc:type
           rdf:resource="http://purl.org/dc/dcmitype/StillImage" />
        <dc:title />
      </cc:Work>
    </rdf:RDF>
  </metadata>
  <path
     sodipodi:nodetypes="ccccccccc"
     inkscape:connector-curvature="0"
     style="color:#000000;fill:#3b577a;fill-opacity:1;fill-rule:nonzero;stroke:none;stroke-width:1;marker:none;visibility:visible;display:inline;overflow:visible;enable-background:accumulate"
     id="path3812"
     d="M 0,1 2,0 62,0 64,1 64,62 62,64 2,64 0,62 z" />
  <path
     d="M 0,1 2,0 62,0 64,1 64,4 0,4 z"
     id="path3029"
     style="color:#000000;fill:#668cbb;fill-opacity:1;fill-rule:nonzero;stroke:none;stroke-width:2.28571415;marker:none;visibility:visible;display:inline;overflow:visible;enable-background:accumulate"
     inkscape:connector-curvature="0"
     sodipodi:nodetypes="ccccccc" />
  <path
     d="M 64,6 62,4 64,3 z"
     id="path3028"
     style="fill:#162f4d;fill-opacity:0.35241502;stroke:none;stroke-width:0.62299293;marker:none"
     inkscape:connector-curvature="0" />
  <path
     d="M 0,6 2,4 0,3 z"
     id="path3028-6"
     style="fill:#87bde7;fill-opacity:0.54740607;stroke-width:1;stroke-linecap:butt;stroke-linejoin:miter;stroke-miterlimit:4;stroke-opacity:1;stroke-dasharray:none;stroke-dashoffset:0"
     inkscape:connector-curvature="0" />
  <g
     id="g3022">
    <path
       sodipodi:nodetypes="ccccc"
       inkscape:connector-curvature="0"
       id="rect5563"
       d="M 58,10 58,58 43,58 26,10 z"
       style="fill:#ffffff;fill-opacity:0.04946995;fill-rule:nonzero;stroke:none" />
    <path
       transform="matrix(0,1,-1,0,0,0)"
       sodipodi:nodetypes="ccccc"
       inkscape:connector-curvature="0"
       id="rect3010"
       d="m 10,-58 47,0 0,52 -47,0 z"
       style="fill:#f2c239;fill-opacity:1;fill-rule:nonzero;stroke:none" />
    <path
       sodipodi:nodetypes="ccccccc"
       inkscape:connector-curvature="0"
       style="color:#000000;fill:#4f0000;fill-opacity:0.08415399;fill-rule:nonzero;stroke:none;marker:none;visibility:visible;display:inline;overflow:visible;enable-background:accumulate"
       id="path3809"
       d="M 6.9991587,36.982336 58.455578,26.115727 64,31.421361 64,62 62,64 34.023547,64 z" />
    <path
       style="fill:#2c8fe4;fill-opacity:1;fill-rule:nonzero;stroke:none"
       d="m 57.952337,10.106283 0,16 c 0,2.501139 -0.26474,3.447054 -0.601581,3.397535 l -51.3984185,-0.973806 0,-18.423729 z"
       id="path3808"
       inkscape:connector-curvature="0"
       sodipodi:nodetypes="cccccc" />
    <g
       transform="translate(-0.04766251,0.10628283)"
       id="g3882"
       style="fill:#f6f5f5;fill-opacity:1">
      <path
         style="fill:#1974c2;fill-opacity:1;stroke:none"
         d="m 57,22 c 0.449383,0 0.705503,1.651994 0.708473,3.397463 0.003,1.75788 -0.0778,3.355061 -0.468778,3.355061 l -3.211943,0.07191 0.539319,-6.543734 z"
         id="path3810"
         inkscape:connector-curvature="0"
         sodipodi:nodetypes="cscccc" />
      <path
         sodipodi:nodetypes="csccscc"
         inkscape:connector-curvature="0"
         id="path3802"
         d="m 57.423759,29.399373 c -0.329192,10e-4 -0.901584,-1.43653 -1.124137,-3.471282 C 56.122752,24.311004 56.306129,22 57,22 L 4.2542373,23 c -2,0 -2.7442848,4.675636 -2.2542373,8 0.5459312,3.703465 2.498568,6.008915 3.7762633,5.909351 z"
         style="fill:#45b1ff;fill-opacity:1;fill-rule:nonzero;stroke:none;color:#000000;stroke-width:1;marker:none;visibility:visible;display:inline;overflow:visible;enable-background:accumulate" />
    </g>
  </g>
</svg>

<svg xmlns="http://www.w3.org/2000/svg" viewBox="0 0 64 64"><g color="#000"><path d="m0 1l2-1h60l2 1v61l-2 2h-60l-2-2z" fill="#3b577a"/><path d="m0 1l2-1h60l2 1v3h-64z" fill="#668cbb"/></g><path d="m64 6l-2-2 2-1z" fill="#162f4d" fill-opacity=".352"/><path d="m0 6l2-2-2-1z" fill="#87bde7" fill-opacity=".547"/><path d="m58 10v48h-15l-17-48z" fill="#fff" fill-opacity=".049"/><path transform="matrix(0 1-1 0 0 0)" d="m10-58h47v52h-47z" fill="#f2c239"/><path d="m6.999 36.982l51.46-10.867 5.544 5.306v30.579l-2 2h-27.976z" fill="#4f0000" fill-opacity=".084" color="#000"/><path d="m57.952 10.11v16c0 2.501-.265 3.447-.602 3.398l-51.4-.974v-18.424z" fill="#2c8fe4"/><g transform="translate(-.048.106)" fill="#f6f5f5"><path d="m57 22c.449 0 .706 1.652.708 3.397.003 1.758-.078 3.355-.469 3.355l-3.212.072.539-6.544z" fill="#1974c2"/><path d="m57.42 29.399c-.329.001-.902-1.437-1.124-3.471-.177-1.617.007-3.928.7-3.928l-52.746 1c-2 0-2.744 4.676-2.254 8 .546 3.703 2.499 6.01 3.776 5.909z" fill="#45b1ff" color="#000"/></g></svg>
